icons/op-sum-sign-24.svg

<svg width="24" height="24" viewBox="0 0 24 24" fill="none" xmlns="http://www.w3.org/2000/svg">
<path d="M9.05965 7.49477C8.71668 7.49477 8.40727 7.485 8.13141 7.46546C7.85555 7.4394 7.57596 7.40358 7.29264 7.35799C7.60578 7.50128 7.87791 7.65759 8.10904 7.82694C8.34762 7.98977 8.5713 8.17865 8.78006 8.39358L12.0121 11.9302C12.2432 12.1647 12.3924 12.3503 12.4595 12.4871C12.5266 12.6174 12.5638 12.7346 12.5713 12.8388C12.5713 12.9756 12.5377 13.1189 12.4706 13.2687C12.4035 13.4185 12.2507 13.6106 12.0121 13.8451L8.37745 17.7627C8.16123 17.9842 7.97484 18.16 7.81827 18.2903C7.66915 18.4141 7.51631 18.5183 7.35974 18.6029C7.6356 18.5704 7.89282 18.5476 8.13141 18.5345C8.36999 18.5215 8.59739 18.515 8.81361 18.515H17V20H5V19.2868C5 19.1435 5.03728 19.0035 5.11184 18.8667C5.19385 18.7234 5.29077 18.5997 5.40261 18.4955L10.6701 13.0147L5.26841 7.36776C5.19385 7.29612 5.13048 7.21145 5.07829 7.11375C5.0261 7.01605 5 6.91835 5 6.82066V6H17V7.49477H9.05965Z" fill="black"/>
</svg>

<svg xmlns="http://www.w3.org/2000/svg" width="24" height="24" viewBox="0 0 24 24"><path d="M9.06 7.495c-.343 0-.653-.01-.929-.03a12.64 12.64 0 0 1-.838-.107c.313.143.585.3.816.469.239.163.462.352.671.567l3.232 3.536c.231.235.38.42.448.557.067.13.104.248.111.352 0 .137-.033.28-.1.43-.068.149-.22.342-.459.576l-3.635 3.918a7.567 7.567 0 0 1-.559.527 2.843 2.843 0 0 1-.458.313 12.026 12.026 0 0 1 1.454-.088H17V20H5v-.713c0-.144.037-.284.112-.42.082-.144.179-.267.291-.372l5.267-5.48-5.402-5.647a1.035 1.035 0 0 1-.19-.254A.622.622 0 0 1 5 6.821V6h12v1.495H9.06Z"/></svg>
